symbols/web/directions_railway/materialsymbolsoutlined/directions_railway_wght100gradN25_24px.svg

<svg xmlns="http://www.w3.org/2000/svg" height="24" width="24"><path d="M6.575 18.85v-.275l1.475-1q-1.1 0-1.862-.763-.763-.762-.763-1.862V6.025q0-1.4 1.513-2.013Q8.45 3.4 12 3.4q3.55 0 5.075.612 1.525.613 1.525 2.013v8.925q0 1.1-.775 1.862-.775.763-1.875.763l1.5 1v.275Zm-.525-7.5h11.9V6.4H6.05Zm9.9.625h-9.9 11.9-2ZM12 15.45q.425 0 .7-.275.275-.275.275-.7 0-.425-.275-.7-.275-.275-.7-.275-.4 0-.688.275-.287.275-.287.7 0 .4.275.687.275.288.7.288Zm-3.95 1.5h7.9q.825 0 1.413-.587.587-.588.587-1.413v-2.975H6.05v2.975q0 .825.588 1.413.587.587 1.412.587ZM12 4.05q-2.95 0-4.362.412-1.413.413-1.613 1.288h11.95q-.2-.875-1.625-1.288Q14.925 4.05 12 4.05Zm0 1.7h5.975-11.95H12Z"/></svg>

<svg xmlns="http://www.w3.org/2000/svg" height="24" width="24"><path d="M6.575 18.85V18.575L8.05 17.575Q6.95 17.575 6.188 16.812Q5.425 16.05 5.425 14.95V6.025Q5.425 4.625 6.938 4.012Q8.45 3.4 12 3.4Q15.55 3.4 17.075 4.012Q18.6 4.625 18.6 6.025V14.95Q18.6 16.05 17.825 16.812Q17.05 17.575 15.95 17.575L17.45 18.575V18.85ZM6.05 11.35H17.95V6.4H6.05ZM15.95 11.975H8.05Q7.225 11.975 6.638 11.975Q6.05 11.975 6.05 11.975H17.95Q17.95 11.975 17.363 11.975Q16.775 11.975 15.95 11.975ZM12 15.45Q12.425 15.45 12.7 15.175Q12.975 14.9 12.975 14.475Q12.975 14.05 12.7 13.775Q12.425 13.5 12 13.5Q11.6 13.5 11.312 13.775Q11.025 14.05 11.025 14.475Q11.025 14.875 11.3 15.162Q11.575 15.45 12 15.45ZM8.05 16.95H15.95Q16.775 16.95 17.363 16.363Q17.95 15.775 17.95 14.95V11.975H6.05V14.95Q6.05 15.775 6.638 16.363Q7.225 16.95 8.05 16.95ZM12 4.05Q9.05 4.05 7.638 4.462Q6.225 4.875 6.025 5.75H17.975Q17.775 4.875 16.35 4.462Q14.925 4.05 12 4.05ZM12 5.75Q14.925 5.75 16.35 5.75Q17.775 5.75 17.975 5.75H6.025Q6.225 5.75 7.638 5.75Q9.05 5.75 12 5.75Z"/></svg>
